T: Matheu Watson's
M: 4/4
L: 1/8
K: Emin
BB|:BE ED E2 GG|GA ED E2 GA|B3 B BA AG|GF FE F2 BB|
BE ED E2 GG|GA ED A3 A|BBBG AAAB|1AG ED E2  BB:|2 AG ED E2  BB |
Be ed e2 gg|ga ed e2 ga|b3  b ba ag|gf fe f2  bb|
be ed e2 gg|ga ed a3 a| bg ab aaag| ef fd e2 BB :||
